X:7031
T:Ganivelle
R:Scottische
C:Fréderic Paris, 1986
O:France
N:Work subject to copyright. With kind permission of Editions PARSIPARLA.
Z:Paul Hardy's Session Tunebook 2022 (see www.paulhardy.net). Arrangement Creative Commons cc by-nc-sa licenced.
M:4/4
L:1/8
Q:1/4=100
K:G
GA|"G"B4 "D"A2GA|"G"B2.G2 G2AB|"C"cBcd cBAG|"D"A6 GA|
"G"B2Bc "D"A2GA|"G"B2G2 G2AB|"C"cB cd "Am"ed cB|"D7"A6:|
|:d2|"C"e2ed "D"c2Bc|"G"d2G2 GB cd|"C"e2-ed "D"c2Bc|"G"d2-de dG Bd|
"C"e2ed "D"c2Bc|"G"d2G2 G2AB|"C"c2-cd "Am"cB AG|"D"A6:|

